X:1
L:1/8
M:2/4
K:Gmin
""D7"" D3 ^F | A2 ^FD |""Gm"" G3 A | B2 AG |""D7"" A3 B | c2 dc |""Gm"" B2 G2 | G4 |:""Cm"" c3 e | g2 fe | 
""Gm"" d3 B | d2 cB |""D7"" A3 B | c2 dc |""Gm"" B2 G2 | G4 :|
